X: 610
P: Longways for as many as will
M: C
L: 1/8
K: F
V: 1
c2 |\
|: c2 |\
d2cB ABc2 | F2GA B4 | Bcd2 G2d2 | gab2 e4 | f2 e4 d2- | d2 c4 B2- | B2AB G2FE | F6 :|
V: 2 clef=bass middle=d
c2 |\
f4 F4 | c4 A2F2 | c4 d2e2 | f4 F4 |\
c4 A2F2 | c4 d4 | e4 f4 | c2d2 e2 :|
|: c2 |\
f2c2 d4 | e4 c4 | e2f2 c2C2 | F2c2 f2 :|

